app/dist/common/images/the-hackett.svg

<svg height="18" viewBox="0 0 18 18" width="18" xmlns="http://www.w3.org/2000/svg"><path d="m0 0h18v18h-18z" fill="#0066b3"/><path d="m14 4h-4.73v4.71h4.73zm-9 .9h4v.04l-3.25 3.73h-.75zm.77 3.77 3.23-2.75v1l-1.65 1.76h-1.58zm3.23-.94-1.17.94h1.17zm0 1.6v1.57l-1.2 1.35 1.2-1.05v1.8h-4v-4h2.03l-1.17 1.32 1.54-1.32h1.37l-2.24 2.52 2.47-2.18zm2.3-.33-2.03 1.84v1.65l2.97-3.49zm-2.03 1.43 1.21-1.43h-1.21zm3.83 2.57h-3.83v-.5l3.83-3.42z" fill="#fff"/></svg>

<!-- by TradingView --><svg width="18" height="18" viewBox="0 0 18 18" xmlns="http://www.w3.org/2000/svg"><path fill="#0066B3" d="M0 0h18v18H0z"/><path d="M14 4H9.27v4.71H14V4Zm-9 .9h4v.04L5.75 8.67H5V4.9Zm.77 3.77L9 5.92v1L7.35 8.68H5.77ZM9 7.73l-1.17.94H9v-.94Zm0 1.6v1.57l-1.2 1.35L9 11.2V13H5V9h2.03l-1.17 1.32L7.4 9h1.37l-2.24 2.52L9 9.34ZM11.3 9l-2.03 1.84v1.65L12.24 9h-.94Zm-2.03 1.43L10.48 9H9.27v1.43ZM13.1 13H9.27v-.5l3.83-3.42V13Z" fill="#fff"/></svg>
